src/images/save-button.svg

<svg width="72" height="21" viewBox="0 0 72 21" fill="none" xmlns="http://www.w3.org/2000/svg">
<rect width="72" height="21" rx="10.5" fill="#F9F9F9"/>
<path d="M16.5415 9C16.2717 7.50852 15.0785 6.62784 13.6154 6.62784C11.7546 6.62784 10.4052 8.0625 10.4052 10.3636C10.4052 12.6648 11.7546 14.0994 13.6154 14.0994C15.0785 14.0994 16.2717 13.2188 16.5415 11.7273H15.6609C15.4478 12.7358 14.5813 13.2756 13.6154 13.2756C12.2944 13.2756 11.2575 12.2528 11.2575 10.3636C11.2575 8.47443 12.2944 7.4517 13.6154 7.4517C14.5813 7.4517 15.4478 7.99148 15.6609 9H16.5415ZM20.0669 14.1136C21.5442 14.1136 22.5385 12.9915 22.5385 11.3011C22.5385 9.59659 21.5442 8.47443 20.0669 8.47443C18.5897 8.47443 17.5953 9.59659 17.5953 11.3011C17.5953 12.9915 18.5897 14.1136 20.0669 14.1136ZM20.0669 13.3608C18.9448 13.3608 18.4334 12.3949 18.4334 11.3011C18.4334 10.2074 18.9448 9.22727 20.0669 9.22727C21.1891 9.22727 21.7005 10.2074 21.7005 11.3011C21.7005 12.3949 21.1891 13.3608 20.0669 13.3608ZM24.2182 8.54545H23.2523L24.9853 11.2727L23.2523 14H24.2182L25.525 11.8835L26.8319 14H27.7978L26.0364 11.2727L27.7978 8.54545H26.8319L25.525 10.7756L24.2182 8.54545ZM28.9936 16.0455H29.8317V13.1619H29.9027C30.0874 13.4602 30.4425 14.1136 31.4936 14.1136C32.8572 14.1136 33.8089 13.0199 33.8089 11.2869C33.8089 9.56818 32.8572 8.47443 31.4794 8.47443C30.4141 8.47443 30.0874 9.12784 29.9027 9.41193H29.8033V8.54545H28.9936V16.0455ZM29.8175 11.2727C29.8175 10.0511 30.3572 9.22727 31.38 9.22727C32.4453 9.22727 32.9709 10.1222 32.9709 11.2727C32.9709 12.4375 32.4311 13.3608 31.38 13.3608C30.3714 13.3608 29.8175 12.5085 29.8175 11.2727ZM36.6925 14.1278C37.6442 14.1278 38.1413 13.6165 38.3118 13.2614H38.3544V14H39.1925V10.4062C39.1925 8.6733 37.8714 8.47443 37.1754 8.47443C36.3516 8.47443 35.4141 8.75852 34.9879 9.75284L35.7834 10.0369C35.968 9.6392 36.4048 9.21307 37.2038 9.21307C37.9744 9.21307 38.3544 9.62145 38.3544 10.321V10.3494C38.3544 10.7543 37.9425 10.7188 36.9482 10.8466C35.9361 10.978 34.8317 11.2017 34.8317 12.4517C34.8317 13.517 35.6555 14.1278 36.6925 14.1278ZM36.8203 13.375C36.1527 13.375 35.6697 13.0767 35.6697 12.4943C35.6697 11.8551 36.2521 11.6562 36.9055 11.571C37.2607 11.5284 38.2124 11.429 38.3544 11.2585V12.0256C38.3544 12.7074 37.8146 13.375 36.8203 13.375ZM41.5602 8.54545H40.7221V14H41.5602V11.6705H44.1738V14H45.0119V8.54545H44.1738V10.8892H41.5602V8.54545ZM47.3805 12.7642V8.54545H46.5424V14H47.5225L50.1362 9.78125V14H50.9743V8.54545H50.0083L47.3805 12.7642ZM51.767 9.3267H53.571V14H54.4091V9.3267H56.1989V8.54545H51.767V9.3267ZM58.2594 10.5199V8.54545H57.4213V14H59.7083C60.9867 14 61.6827 13.2188 61.6827 12.2386C61.6827 11.2443 60.9867 10.5199 59.7083 10.5199H58.2594ZM58.2594 11.3011H59.7083C60.3723 11.3011 60.8446 11.706 60.8446 12.2812C60.8446 12.8317 60.3723 13.2188 59.7083 13.2188H58.2594V11.3011Z" fill="black"/>
</svg>

<svg width="72" height="21" fill="none" xmlns="http://www.w3.org/2000/svg"><rect width="72" height="21" rx="10.5" fill="#F9F9F9"/><path d="M16.541 9c-.27-1.491-1.463-2.372-2.926-2.372-1.86 0-3.21 1.434-3.21 3.736 0 2.3 1.35 3.735 3.21 3.735 1.463 0 2.657-.88 2.926-2.372h-.88c-.213 1.009-1.08 1.549-2.046 1.549-1.32 0-2.357-1.023-2.357-2.912 0-1.89 1.036-2.912 2.357-2.912.966 0 1.833.54 2.046 1.548h.88Zm3.526 5.114c1.477 0 2.471-1.123 2.471-2.813 0-1.704-.994-2.827-2.471-2.827s-2.472 1.123-2.472 2.827c0 1.69.995 2.813 2.472 2.813Zm0-.753c-1.122 0-1.634-.966-1.634-2.06s.512-2.074 1.634-2.074c1.122 0 1.634.98 1.634 2.074 0 1.094-.512 2.06-1.634 2.06Zm4.151-4.816h-.966l1.733 2.728L23.252 14h.966l1.307-2.117L26.832 14h.966l-1.762-2.727 1.762-2.728h-.966l-1.307 2.23-1.307-2.23Zm4.776 7.5h.838v-2.883h.07c.185.298.54.952 1.592.952 1.363 0 2.315-1.094 2.315-2.827 0-1.719-.952-2.813-2.33-2.813-1.065 0-1.392.654-1.576.938h-.1v-.867h-.81v7.5Zm.823-4.772c0-1.222.54-2.046 1.563-2.046 1.065 0 1.59.895 1.59 2.046 0 1.165-.539 2.088-1.59 2.088-1.009 0-1.563-.853-1.563-2.088Zm6.876 2.855c.951 0 1.448-.511 1.619-.867h.042V14h.839v-3.594c0-1.733-1.322-1.932-2.018-1.932-.823 0-1.76.285-2.187 1.279l.795.284c.185-.398.622-.824 1.42-.824.771 0 1.151.408 1.151 1.108v.028c0 .405-.411.37-1.406.498-1.012.131-2.116.355-2.116 1.605 0 1.065.824 1.676 1.86 1.676Zm.127-.753c-.667 0-1.15-.298-1.15-.88 0-.64.582-.839 1.236-.924.355-.043 1.306-.142 1.448-.313v.768c0 .681-.54 1.349-1.534 1.349Zm4.74-4.83h-.838V14h.838v-2.33h2.614V14h.838V8.545h-.838v2.344H41.56V8.545Zm5.82 4.22v-4.22h-.838V14h.98l2.614-4.219V14h.838V8.545h-.966l-2.628 4.22Zm4.387-3.438h1.804V14h.838V9.327h1.79v-.782h-4.432v.782Zm6.492 1.193V8.545h-.838V14h2.287c1.279 0 1.975-.781 1.975-1.761 0-.995-.696-1.72-1.975-1.72H58.26Zm0 .781h1.45c.663 0 1.136.405 1.136.98 0 .55-.473.938-1.137.938H58.26V11.3Z" fill="#000"/></svg>
